X:1
T:Title
%%score 1 2
L:1/8
Q:1/4=130
M:6/4
K:D
V:1 treble nm="Strings 1, Treble"
V:2 bass nm="Strings 1, Bass"
V:1
 [FA]2 [FA]2 [GB]2 [FA]2 D2 [CE]2 | [DF]12 | [CE]2 [CE]2 [C^D]2 [CE]2 [CB]2 [CA]2 | [DF]12 | %4
w: 1.~Have~ you~ been~ fight ing~ the~|foe?~|Are~ you~ still~ striv ing~ to~|win?~|
 [FA]2 [FA]2 [F^G]2 [FA]2 [=Gd]2 [GB]2 | [FA]12 | [FA]>[FA] [FA]2 [GB]2 [FA]2 D2 [CE]2 | D12 | %8
w: Do~ not~ give~ up~ and~ let~|go,~|Tell~ the~ One~ who~ saves~ from~ all~|sin.~|
 [FA]>[FA] [FA]2 [GB]2 [FA]2 D2 [CE]2 | [DF]12 | [FA]>[FA] [FA]2 [GB]2 [FA]2 D2 [DF]2 | [CE]12 | %12
w: ||||
 [EG]>[EF] [EG]2 [EA]2 [DF]>[DE] [DF]2 [FA]2 | [GB]>[G^A] [GB]2 [Gd]2 [F=A]>[DF] D2 [DF]2 | %14
w: ||
 [FA]>[FA] [FA]2 [GB]2 [FA]2 D2 [CE]2 | D12 |] %16
w: ||
V:2
 [D,D]2 [D,D]2 [D,D]2 [D,A,]2 [D,B,]2 [A,,C]2 | [D,D]12 | %2
 [A,,A,]2 [A,,A,]2 [A,,A,]2 [A,,A,]2 [A,,A,]2 [A,,A,]2 | [D,A,]12 | %4
 [D,D]2 [D,D]2 [D,D]2 [D,D]2 [G,D]2 [G,D]2 | [D,D]12 | %6
 [D,D]>[D,D] [D,D]2 [D,D]2 [D,A,]2 [D,F,]2 [A,,G,]2 | [D,F,]12 | %8
 [D,D]>[D,D] [D,D]2 [D,D]2 [D,A,]2 [D,B,]2 [A,,C]2 | [D,D]12 | %10
 [D,D]>[D,D] [D,D]2 [D,D]2 [D,D]2 [D,D]2 [F,D]2 | A,12 | %12
 [A,,A,C]>[A,,A,C] [A,,A,C]2 [A,,A,C]2 [D,D]>[D,D] [D,D]2 [D,D]2 | %13
 [G,D]>[G,D] [G,D]2 [G,D]2 [D,D]>[D,D] [D,D]2 [D,A,]2 | %14
 [D,D]>[D,D] [D,D]2 [D,D]2 [D,A,]2 [D,F,]2 [A,,G,]2 | [D,F,]12 |] %16

